dist/img/vk.svg

<svg width="25" height="14" viewBox="0 0 25 14" fill="none" xmlns="http://www.w3.org/2000/svg">
<path d="M11.7288 0.0034931C10.4207 -0.0104238 9.30741 0.0034931 8.68119 0.309645C8.26371 0.511427 7.94364 0.970657 8.13846 0.99153C8.38199 1.02632 8.93168 1.14461 9.22391 1.54121C9.59965 2.04915 9.58573 3.19722 9.58573 3.19722C9.58573 3.19722 9.79447 6.35615 9.0778 6.75276C8.58378 7.02412 7.90885 6.47444 6.44767 3.9626C5.70316 2.66841 5.13956 1.24202 5.13956 1.24202C5.13956 1.24202 5.03519 0.977614 4.84037 0.838454C4.6038 0.664504 4.27677 0.608842 4.27677 0.608842L0.790808 0.629714C0.790808 0.629714 0.268958 0.650588 0.0810928 0.873244C-0.0928588 1.08199 0.0671749 1.49251 0.0671749 1.49251C0.0671749 1.49251 2.79471 7.873 5.88407 11.0876C8.71598 14.0378 11.9306 13.843 11.9306 13.843H13.3918C13.3918 13.843 13.8301 13.7943 14.0528 13.5577C14.2615 13.335 14.2546 12.9176 14.2546 12.9176C14.2546 12.9176 14.2267 10.9624 15.1313 10.6701C16.0288 10.3918 17.17 12.5627 18.3876 13.3977C19.313 14.0308 20.0158 13.8917 20.0158 13.8917L23.2721 13.843C23.2721 13.843 24.9699 13.7386 24.1628 12.3957C24.1001 12.2913 23.6966 11.4077 21.7483 9.59859C19.7027 7.70601 19.974 8.01216 22.4372 4.73494C23.9331 2.73799 24.5315 1.52034 24.3437 0.99153C24.1628 0.497513 23.0634 0.629714 23.0634 0.629714L19.3965 0.650588C19.3965 0.650588 19.1252 0.615798 18.9234 0.734084C18.7286 0.85237 18.6033 1.13069 18.6033 1.13069C18.6033 1.13069 18.0188 2.67537 17.2465 3.99043C15.6183 6.75972 14.9573 6.91279 14.6929 6.73884C14.0736 6.33528 14.2267 5.12459 14.2267 4.26875C14.2267 1.576 14.6372 0.462721 13.4335 0.170485C13.0369 0.0730723 12.7447 0.0104507 11.7288 0.0034931Z" fill="#E12025"/>
</svg>

<svg xmlns="http://www.w3.org/2000/svg" fill="none" viewBox="0 0 25 14"><path fill="#E12025" d="M11.729.003C10.42-.01 9.307.003 8.68.31c-.417.201-.737.66-.543.682.244.034.794.153 1.086.55.376.507.362 1.655.362 1.655s.208 3.16-.508 3.556c-.494.271-1.17-.279-2.63-2.79C5.703 2.668 5.14 1.242 5.14 1.242s-.105-.264-.3-.404c-.236-.173-.563-.23-.563-.23L.79.63S.269.65.08.873c-.174.209-.014.62-.014.62s2.728 6.38 5.817 9.595c2.832 2.95 6.047 2.755 6.047 2.755h1.46s.44-.049.662-.285c.208-.223.202-.64.202-.64s-.028-1.956.876-2.248c.898-.278 2.039 1.893 3.257 2.728.925.633 1.628.494 1.628.494l3.256-.049s1.698-.104.89-1.447c-.062-.105-.465-.988-2.414-2.797-2.045-1.893-1.774-1.587.69-4.864 1.495-1.997 2.094-3.215 1.906-3.743-.181-.494-1.28-.362-1.28-.362l-3.668.02s-.27-.034-.473.084c-.194.118-.32.397-.32.397s-.584 1.544-1.357 2.86c-1.628 2.769-2.289 2.922-2.553 2.748-.62-.404-.466-1.614-.466-2.47 0-2.693.41-3.806-.793-4.099-.397-.097-.69-.16-1.705-.167z"/></svg>
